img/minus.svg

<svg fill="none" height="20" viewBox="0 0 20 20" width="20" xmlns="http://www.w3.org/2000/svg"><path d="m4.82178 10.8325c-.18555 0-.36133-.0513-.52735-.1538-.16601-.1025-.30273-.2368-.41015-.4028-.10254-.1709-.15381-.35647-.15381-.55666 0-.2002.05127-.3833.15381-.54932.10742-.1709.24414-.30517.41015-.40283.16602-.10254.3418-.15381.52735-.15381h10.35642c.1953 0 .376.05127.542.15381.166.09766.2979.23193.3955.40283.1026.16602.1538.34912.1538.54932 0 .20019-.0512.38576-.1538.55666-.0976.166-.2295.3003-.3955.4028s-.3467.1538-.542.1538z" fill="#2c2e2c"/></svg>

<svg width="20" height="20" viewBox="0 0 20 20" fill="none" xmlns="http://www.w3.org/2000/svg">
<path d="M4.82178 10.8325C4.63623 10.8325 4.46045 10.7812 4.29443 10.6787C4.12842 10.5762 3.9917 10.4419 3.88428 10.2759C3.78174 10.105 3.73047 9.91943 3.73047 9.71924C3.73047 9.51904 3.78174 9.33594 3.88428 9.16992C3.9917 8.99902 4.12842 8.86475 4.29443 8.76709C4.46045 8.66455 4.63623 8.61328 4.82178 8.61328H15.1782C15.3735 8.61328 15.5542 8.66455 15.7202 8.76709C15.8862 8.86475 16.0181 8.99902 16.1157 9.16992C16.2183 9.33594 16.2695 9.51904 16.2695 9.71924C16.2695 9.91943 16.2183 10.105 16.1157 10.2759C16.0181 10.4419 15.8862 10.5762 15.7202 10.6787C15.5542 10.7812 15.3735 10.8325 15.1782 10.8325H4.82178Z" fill="#2C2E2C"/>
</svg>
